images/kyungran/hart-icon.svg

<svg width="40" height="35" viewBox="0 0 40 35" fill="none" xmlns="http://www.w3.org/2000/svg">
<g clip-path="url(#clip0_309_3)">
<path d="M19.5312 10.7812L19.9609 11.25L20.4297 10.8203C21.7188 9.53125 23.5547 8.94531 25.3125 9.25781C28.0078 9.6875 30 12.0312 30 14.7656V14.9609C30 16.6016 29.2969 18.1641 28.125 19.2578L21.0547 25.8594C20.7812 26.1328 20.3906 26.25 20 26.25C19.5703 26.25 19.1797 26.1328 18.9062 25.8594L11.8359 19.2578C10.6641 18.1641 10 16.6016 10 14.9609V14.7656C10 12.0312 11.9531 9.6875 14.6484 9.25781C16.4062 8.94531 18.2422 9.53125 19.5312 10.7812C19.5312 10.8203 19.4922 10.7812 19.5312 10.7812ZM19.9609 13.9062L18.2031 12.1094C17.3438 11.2891 16.1328 10.8984 14.9609 11.0938C13.1641 11.4062 11.875 12.9297 11.875 14.7656V14.9609C11.875 16.0938 12.3047 17.1484 13.125 17.8906L20 24.2969L26.8359 17.8906C27.6562 17.1484 28.125 16.0938 28.125 14.9609V14.7656C28.125 12.9297 26.7969 11.4062 25 11.0938C23.8281 10.8984 22.6172 11.2891 21.7578 12.1094L19.9609 13.9062Z" fill="#639CFF"/>
</g>
<defs>
<clipPath id="clip0_309_3">
<rect width="40" height="35" fill="white"/>
</clipPath>
</defs>
</svg>

<svg width="40" height="35" fill="none" xmlns="http://www.w3.org/2000/svg"><g clip-path="url(#a)"><path d="m19.531 10.781.43.469.469-.43c1.289-1.289 3.125-1.875 4.883-1.562A5.582 5.582 0 0 1 30 14.766v.195c0 1.64-.703 3.203-1.875 4.297l-7.07 6.601c-.274.274-.664.391-1.055.391-.43 0-.82-.117-1.094-.39l-7.07-6.602C10.664 18.164 10 16.602 10 14.96v-.195c0-2.735 1.953-5.079 4.648-5.508 1.758-.313 3.594.273 4.883 1.523 0 .04-.039 0 0 0Zm.43 3.125-1.758-1.797a3.82 3.82 0 0 0-3.242-1.015 3.697 3.697 0 0 0-3.086 3.672v.195c0 1.133.43 2.187 1.25 2.93L20 24.297l6.836-6.406a3.93 3.93 0 0 0 1.289-2.93v-.195c0-1.836-1.328-3.36-3.125-3.672a3.82 3.82 0 0 0-3.242 1.015l-1.797 1.797Z" fill="#639CFF"/></g><defs><clipPath id="a"><path fill="#fff" d="M0 0h40v35H0z"/></clipPath></defs></svg>
